resources/svg/money-stack-o.svg

<svg width="15" height="15" viewBox="0 0 15 15" fill="none" xmlns="http://www.w3.org/2000/svg">
<path d="M0 12.5H15M0 14.5H15M2.5 4V2.5H4M11 2.5H12.5V4M2.5 7V8.5H4M11 8.5H12.5V7M7.5 7.5C6.39543 7.5 5.5 6.60457 5.5 5.5C5.5 4.39543 6.39543 3.5 7.5 3.5C8.60457 3.5 9.5 4.39543 9.5 5.5C9.5 6.60457 8.60457 7.5 7.5 7.5ZM1.5 0.5H13.5C14.0523 0.5 14.5 0.947715 14.5 1.5V9.5C14.5 10.0523 14.0523 10.5 13.5 10.5H1.5C0.947716 10.5 0.5 10.0523 0.5 9.5V1.5C0.5 0.947716 0.947715 0.5 1.5 0.5Z" stroke="black"/>
</svg>

<svg viewBox="0 0 15 15" fill="none" xmlns="http://www.w3.org/2000/svg" fill="currentColor"><path d="M0 12.5h15m-15 2h15M2.5 4V2.5H4m7 0h1.5V4m-10 3v1.5H4m7 0h1.5V7m-5 .5a2 2 0 110-4 2 2 0 010 4zm-6-7h12a1 1 0 011 1v8a1 1 0 01-1 1h-12a1 1 0 01-1-1v-8a1 1 0 011-1z" stroke="currentColor"/></svg>
